packages/foundations/assets/icons/functional/images/devices/mobile_phone.svg

<svg xmlns="http://www.w3.org/2000/svg" width="32" height="32" fill="none"><path fill="#1A1C1F" fill-rule="evenodd" d="M10.217 2.108c-.764.21-1.553.848-1.882 1.521-.356.728-.333-.123-.333 12.371 0 9.953.009 11.375.081 11.677.247 1.05 1.058 1.896 2.13 2.225.302.092.632.098 5.787.098s5.485-.006 5.787-.098c1.073-.329 1.884-1.178 2.133-2.236.118-.502.118-22.83 0-23.332a3.06 3.06 0 0 0-2.16-2.228c-.419-.112-11.136-.109-11.543.002m1.823 2.126c.08.297.296.554.571.679.202.092.424.098 3.389.098s3.187-.006 3.389-.098c.275-.125.491-.382.571-.679L20.022 4h.577c.786 0 1.054.115 1.273.545.098.192.101.514.101 11.455s-.003 11.263-.101 11.455a.85.85 0 0 1-.499.463c-.172.072-.835.082-5.373.082s-5.201-.01-5.373-.082a.85.85 0 0 1-.499-.463c-.098-.192-.101-.514-.101-11.455s.003-11.263.101-11.455c.219-.431.473-.54 1.261-.543L11.978 4zm1.516 19.88a.98.98 0 0 0-.53.788c-.034.35.059.601.305.823.321.29.516.31 2.838.291 2.302-.018 2.295-.017 2.628-.434.145-.183.163-.244.163-.564 0-.448-.163-.732-.52-.905-.227-.11-.301-.113-2.444-.113-2.151 0-2.215.003-2.44.114"/></svg>

<svg width="32" height="32" viewBox="0 0 32 32" fill="none" xmlns="http://www.w3.org/2000/svg"><path d="M10.217 2.108 C 9.453 2.318,8.664 2.956,8.335 3.629 C 7.979 4.357,8.002 3.506,8.002 16.000 C 8.002 25.953,8.011 27.375,8.083 27.677 C 8.330 28.727,9.141 29.573,10.213 29.902 C 10.515 29.994,10.845 30.000,16.000 30.000 C 21.155 30.000,21.485 29.994,21.787 29.902 C 22.860 29.573,23.671 28.724,23.920 27.666 C 24.038 27.164,24.038 4.836,23.920 4.334 C 23.667 3.262,22.819 2.388,21.760 2.106 C 21.341 1.994,10.624 1.997,10.217 2.108 M12.040 4.234 C 12.120 4.531,12.336 4.788,12.611 4.913 C 12.813 5.005,13.035 5.011,16.000 5.011 C 18.965 5.011,19.187 5.005,19.389 4.913 C 19.664 4.788,19.880 4.531,19.960 4.234 L 20.022 4.000 20.599 4.000 C 21.385 4.000,21.653 4.115,21.872 4.545 C 21.970 4.737,21.973 5.059,21.973 16.000 C 21.973 26.941,21.970 27.263,21.872 27.455 C 21.748 27.700,21.626 27.812,21.373 27.918 C 21.201 27.990,20.538 28.000,16.000 28.000 C 11.462 28.000,10.799 27.990,10.627 27.918 C 10.374 27.812,10.252 27.700,10.128 27.455 C 10.030 27.263,10.027 26.941,10.027 16.000 C 10.027 5.059,10.030 4.737,10.128 4.545 C 10.347 4.114,10.601 4.005,11.389 4.002 L 11.978 4.000 12.040 4.234 M13.556 24.114 C 13.261 24.260,13.059 24.561,13.026 24.902 C 12.992 25.252,13.085 25.503,13.331 25.725 C 13.652 26.015,13.847 26.035,16.169 26.016 C 18.471 25.998,18.464 25.999,18.797 25.582 C 18.942 25.399,18.960 25.338,18.960 25.018 C 18.960 24.570,18.797 24.286,18.440 24.113 C 18.213 24.003,18.139 24.000,15.996 24.000 C 13.845 24.000,13.781 24.003,13.556 24.114 " fill="#1A1C1F" stroke="none" fill-rule="evenodd"></path></svg>
